X:1
T:Donna e'l core
T:Donna e'l core
T:Giovanni Maria Artusi
T:Source : Canzonette a 4 voci---Libro primo---Venetia---G.Vincenti---1598. Editor : André Vierendeels (19/02/14).
C:Giovanni Maria Artusi
%%score [ 1 2 3 4 ]
L:1/8
Q:1/4=80
M:4/4
K:C
V:1 treble nm="Canto 1" snm="C 1"
V:2 treble nm="Canto 2" snm="C 2"
V:3 treble nm="Canto 3" snm="C 3"
V:4 treble-8 nm="Tenor" snm="T"
V:1
 d8 | e8 | z4 z2 c2 | g6 d2 | z2 d2 c3 d | c2 c2 A4 | B8 | B8 | c4 z2 c2 | c2 f2 e4 | d2 e2 d4 | %11
w: Don-|na|e'l|co- re,|m'in- cen- di'a|tut- te l'ho-|re,|don-|na che|l'al- m'e'l co-|re, el co-|
 e2 g2 e3 g | e2 e2 d4 | d8 |[M:3/4] B2 B2 A2 |[M:4/4] A4 c2 c2- | c2 B2 c4 | d2 e4 e2 | c2 d2 d4 | %19
w: re, m'in- cen- di'a|tut- te l'ho-|re,|se tu sei|la mia vi-|* * ta,|per- che non|dar mi'a- i-|
 d8 |[M:3/4] d2 d2 d2 |[M:4/4] c6 c2 | d4 e4 | B2 c4 c2 | c2 B2 A4 | B8 |] %26
w: ta,|se tu sei|la mia|vi- ta,|per- che non|dar mi'a- i-|ta.|
V:2
 B8 | c4 z2 c2 | c2 f2 e4 | d2 e2 d4 | e2 g2 e3 g | e2 e2 d4 | d8 | d8 | e8 | z4 z2 c2 | g6 d2 | %11
w: Don-|na che|l'al- m'e'l co-|re, e'l co-|re, m'in- cen- di'a|tut- te l'ho-|re,|don-|na|e'l|co- re,|
 z2 d2 c3 d | c2 c2 A4 | B8 |[M:3/4] d2 d2 d2 |[M:4/4] c6 c2 | d4 e4 | B2 c4 c2 | c2 B2 A4 | B8 | %20
w: m'in- cen- di'a|tut- te l'ho-|re,|se tu sei|la mia|vi- ta,|per- che non|dar mi'a- i-|ta,|
[M:3/4] B2 B2 A2 |[M:4/4] A4 c2 c2- | c2 B2 c4 | d2 e4 e2 | c2 d2 d4 | d8 |] %26
w: se tu sei|la mia vi-|* * ta,|per- che non|dar mi'a- i-|ta.|
V:3
 z4 G4- | G4 G4 | F4 G2 A2 | B2 c4 B2 | c2 B2 A3 G | G2 G2 ^F4 | G8 | z4 G4- | G4 G4 | F4 G2 A2 | %10
w: Don-|* na|che l'al- m'e'l|co- * *|re, m'in- cen- di'a|tut- te l'ho-|re,|don-|* n|che l'al- m'e'l|
 B2 c4 B2 | c2 B2 A3 G | G2 G2 ^F4 | G8 |[M:3/4] z6 |[M:4/4] z8 | z4 G4 | G6 G2 | C2 G2 ^F4 | G8 | %20
w: co- * *|re, m'in- cen- di'a|tut- te l'ho-|re,|||per-|che non|dar mi'a- i-|ta,|
[M:3/4] z6 |[M:4/4] z8 | z4 G4 | G6 G2 | C2 G2 ^F4 | G8 |] %26
w: ||per-|che non|dar mi'a- i-|ta.|
V:4
 G8 | c8 | z2 d2 e2 f2 | g4 g4 | z2 G2 A3 B | c2 c2 d4 | G8 | G8 | c8 | z2 d2 e2 f2 | g4 g4 | %11
w: Don-|na|che l'al- m'e'l|co- re,|m'in- cen- di'a|tut- te l'ho-|re,|don-|na|che l'al- m'e'l|co- re|
 z2 G2 A3 B | c2 c2 d4 | G8 |[M:3/4] g2 g2 d2 |[M:4/4] f6 a2 | g4 c4 | z2 c2 c3 B | A2 G2 d4 | G8 | %20
w: m'in- cen- dia|tut- te l'ho-|re,|se tu sei|la mia|vi- ta,|per- che non|dar- mi'a- i-|ta,|
[M:3/4] g2 g2 d2 |[M:4/4] f6 a2 | g4 c4 | z2 c2 c3 B | A2 G2 d4 | G8 |] %26
w: se tu sei|la mia|vi- ta,|per- che non|dar mi'a- i-|ta.|

